img/sprite/women2.svg

<svg width="100" height="92" xmlns="http://www.w3.org/2000/svg" fill="none">
 <mask height="92" width="100" y="0" x="0" maskUnits="userSpaceOnUse" id="mask0_1_488">
  <path id="svg_1" fill="#C4C4C4" d="m94.7099,51.7367c-6.552,10.2358 -6.7098,23.2633 -14.2098,29.7633c-7.5,6.5 -19.5,9.6593 -30.5,9.5c-11.0001,-0.1593 -23,-3 -29.5,-7.5c-6.5,-4.5 -9.7903,-16.5 -12.50004,-31.7633c-0.00005,-10.2367 -9.2074,-17.1211 -7.07505,-25.9299c4.55593,-20.06568 13.15429,-24.34196 35.11019,-25.8068l25.505,0c26.9364,2.44141 32.979,5.74112 37.5349,25.8068c2.1319,8.8088 0.5372,18.2829 -4.3652,25.9299z"/>
 </mask>

 <g>
  <title>Layer 1</title>
  <g id="svg_2" mask="url(#mask0_1_488)">
   <path id="svg_3" fill="#623A54" d="m35.668,75.0039l-2.539,-23.5351l13.7695,8.3007l0,16.5039l-11.2305,-1.2695z"/>
   <path id="svg_4" fill="#724161" d="m71.6055,49.418c-0.3125,-2.4219 -2.6041,-5.3711 -3.7109,-6.543l-12.793,9.082l0,20.7032c2.4414,1.1718 7.3633,3.789 7.5196,4.8828c0.1953,1.3672 8.0078,1.0742 8.9843,0c0.9766,-1.0742 -0.9765,-4.0039 0,-5.7618c0.9766,-1.7578 -1.8554,-5.1757 -1.8554,-6.8359c0,-1.6601 1.8554,-1.9531 1.8554,-4.2969c0,-2.3437 -1.5625,-4.0039 -1.8554,-5.957c-0.293,-1.9531 2.2461,-2.2461 1.8554,-5.2734z"/>
   <path id="svg_5" fill="#C15764" d="m43.858,59.7541l14.1199,0c-0.0645,1.7086 -0.1548,5.5319 0,7.1567c0.1934,2.0309 1.7408,4.9323 5.4158,6.7698c1.5505,0.7752 2.8772,1.2578 4.2779,1.7673c1.9192,0.6982 3.9774,1.4469 6.9406,3.0682c4.1006,2.2438 11.5087,10.5416 14.7002,14.4101l-76.7889,0c3.1915,-3.8685 10.5996,-12.1663 14.7001,-14.4101c2.9632,-1.6213 5.0214,-2.37 6.9407,-3.0682c1.4007,-0.5095 2.7274,-0.9921 4.2779,-1.7673c3.675,-1.8375 5.2224,-4.7389 5.4158,-6.7698c0.1547,-1.6248 0.0645,-5.4481 0,-7.1567z"/>
   <mask height="34" width="78" y="61" x="12" maskUnits="userSpaceOnUse" id="mask1_1_488">
    <path id="svg_6" fill="#FFA39C" d="m43.858,61.7072l14.1199,0c-0.0645,1.7086 -0.1548,5.5319 0,7.1567c0.1934,2.0309 1.7408,4.9323 5.4158,6.7698c1.5505,0.7752 2.8772,1.2578 4.2779,1.7673c1.9192,0.6982 3.9774,1.4469 6.9406,3.0683c4.1006,2.2437 11.5087,10.5415 14.7002,14.41l-76.7889,0c3.1915,-3.8685 10.5996,-12.1663 14.7001,-14.41c2.9632,-1.6214 5.0214,-2.3701 6.9407,-3.0683c1.4007,-0.5095 2.7274,-0.9921 4.2779,-1.7673c3.675,-1.8375 5.2224,-4.7389 5.4158,-6.7698c0.1547,-1.6248 0.0645,-5.4481 0,-7.1567z"/>
   </mask>
   <g id="svg_7" mask="url(#mask1_1_488)">
    <path id="svg_8" fill="#AC4D59" d="m35.5571,14.6669c-0.9699,3.372 -3.1189,10.8441 -3.2965,22.684c-0.2723,18.1639 4.7667,22.5867 9.5815,26.8127c0.3216,0.2823 0.6421,0.5636 0.96,0.8481c3.2768,2.9326 6.5108,3.5937 7.9022,3.7422c1.3913,-0.1485 4.6253,-0.8096 7.9021,-3.7422c0.3179,-0.2845 0.6385,-0.5658 0.96,-0.8481c4.8149,-4.226 9.8538,-8.6488 9.5815,-26.8127c-0.1776,-11.8399 -2.3266,-19.312 -3.2965,-22.684c-0.3028,-1.053 -0.4907,-1.7062 -0.4676,-1.9677l-29.3591,0c0.0231,0.2615 -0.1648,0.9147 -0.4676,1.9677z"/>
   </g>
   <path id="svg_9" fill="#C15764" d="m67.1346,48.9118c1.5958,-1.1761 3.9086,-3.0292 4.9214,-4.5648c0.7576,-1.1472 1.0739,-2.6084 0.8654,-3.9992c-0.4329,-3.1654 -3.8573,-4.667 -6.1755,-2.7129c-0.1303,0.1091 -0.2519,0.2316 -0.3766,0.3573c-0.0509,0.0513 -0.1024,0.1032 -0.1553,0.1549c-0.0458,-0.0581 -0.0902,-0.1161 -0.1341,-0.1735c-0.1077,-0.1406 -0.2126,-0.2775 -0.328,-0.4024c-2.0498,-2.2341 -5.6379,-1.1819 -6.4713,1.9024c-0.3843,1.3528 -0.2572,2.8424 0.3479,4.0769c0.8084,1.6524 2.8658,3.7856 4.2984,5.1557c0.3992,0.3819 1.5219,1.3818 1.5219,1.3818c0,0 1.2411,-0.8484 1.6858,-1.1762z"/>
   <path id="svg_10" fill="#C9616E" d="m35.5571,14.6669c-0.9699,3.372 -3.1189,6.9378 -3.2965,18.7777c-0.2723,18.1639 4.7667,22.5867 9.5815,26.8128c0.3216,0.2822 0.6421,0.5635 0.96,0.848c3.2768,2.9326 6.5108,3.5938 7.9022,3.7422c1.3913,-0.1484 4.6253,-0.8096 7.9021,-3.7422c0.3179,-0.2845 0.6385,-0.5658 0.96,-0.848c4.8149,-4.2261 9.8538,-8.6489 9.5815,-26.8128c-0.1776,-11.8399 -2.3266,-15.4057 -3.2965,-18.7777c-0.3028,-1.053 -0.4907,-1.7062 -0.4676,-1.9677l-29.3591,0c0.0231,0.2615 -0.1648,0.9147 -0.4676,1.9677z"/>
   <path id="svg_11" fill="#AB3645" d="m48.1258,50.7058c0.276,-0.186 0.5814,-0.3113 0.9529,-0.3113c0.4718,0 0.7871,0.1776 1.0466,0.3236l0.0094,0.0053c0.2337,0.1316 0.4124,0.2283 0.6494,0.2397c0.2369,-0.0114 0.4156,-0.1081 0.6493,-0.2397l0.0095,-0.0053c0.2594,-0.146 0.5747,-0.3236 1.0465,-0.3236c0.3715,0 0.6769,0.1253 0.953,0.3113c0.2678,0.1805 0.5217,0.428 0.7896,0.6891l0.0085,0.0083c0.2187,0.2132 0.4516,0.4401 0.7224,0.6666c0.4165,0.3482 1.0645,0.7414 1.5999,1.0657l0.004,0.0025c0,0 0.6833,0.3356 0.6833,0.4643c0,0.1288 -0.4411,0.2361 -0.4411,0.2361c-0.1249,0.0656 -0.2661,0.1553 -0.4138,0.2607c-0.2952,0.2106 -0.6039,0.4753 -0.8406,0.7128c-0.1112,0.1116 -0.2201,0.2546 -0.3402,0.4211c-0.028,0.0388 -0.0567,0.0789 -0.0859,0.12c-0.0937,0.1313 -0.1942,0.2722 -0.3029,0.4105c-0.286,0.3638 -0.6498,0.7387 -1.1827,0.9615c-1.0079,0.4214 -1.7213,0.5055 -2.8123,0.5055c-0.042,0 -0.0827,-0.0026 -0.122,-0.0078c-0.0393,0.0052 -0.08,0.0078 -0.122,0.0078c-1.091,0 -1.8043,-0.0841 -2.8123,-0.5055c-0.5329,-0.2228 -0.8967,-0.5977 -1.1827,-0.9615c-0.1087,-0.1383 -0.2091,-0.2792 -0.3028,-0.4105c-0.0293,-0.041 -0.058,-0.0812 -0.086,-0.12c-0.1201,-0.1665 -0.229,-0.3095 -0.3402,-0.4211c-0.2367,-0.2375 -0.5453,-0.5022 -0.8406,-0.7128c-0.1476,-0.1054 -0.2889,-0.1951 -0.4138,-0.2607c0,0 -0.4441,-0.1887 -0.4441,-0.2882c0,-0.0996 0.8412,-0.4147 0.8412,-0.4147c0.5354,-0.3243 1.1834,-0.7175 1.5999,-1.0657c0.2708,-0.2265 0.5038,-0.4534 0.7225,-0.6666l0.0085,-0.0083c0.2678,-0.2611 0.5217,-0.5086 0.7896,-0.6891zm2.6583,3.4973c-1.1704,0 -2.1645,-0.2776 -2.5734,-0.3884c0.0117,-0.002 0.0232,-0.004 0.0343,-0.0061c0.3723,-0.0692 0.758,-0.1937 1.1231,-0.3117l0.0078,-0.0025c0.5259,-0.1699 1.0006,-0.3211 1.4082,-0.3323c0.4075,0.0112 0.8822,0.1624 1.4082,0.3323l0.0077,0.0025c0.3472,0.1122 0.713,0.2303 1.0683,0.3012c-0.4275,0.1142 -1.3139,0.405 -2.4842,0.405z" clip-rule="evenodd" fill-rule="evenodd"/>
   <path id="svg_12" fill="#AC4D59" d="m52.6072,43.5109c-0.3502,-0.3169 -0.7282,-0.6994 -1.7266,-0.7336c-0.9985,-0.0341 -1.7267,0.7336 -1.7267,0.7336c-0.6252,0.5658 -0.773,1.8559 -0.566,1.8559c0.1202,0 0.3378,-0.21 0.5511,-0.4157c0.1536,-0.1482 0.305,-0.2943 0.416,-0.358c0.326,-0.187 0.7553,-0.54 1.3256,-0.5462c0.5702,0.0062 0.9995,0.3592 1.3255,0.5462c0.111,0.0637 0.2624,0.2098 0.4161,0.358c0.2132,0.2057 0.4308,0.4157 0.551,0.4157c0.207,0 0.0592,-1.2901 -0.566,-1.8559z"/>
   <circle id="svg_13" fill="#4D253F" r="1.73373" cy="37.343" cx="42.826"/>
   <path id="svg_14" fill="#4D253F" d="m40.0111,35.1523c0.5821,-0.3955 0.9946,-0.6757 2.0691,-0.6757c1.0414,0 1.3683,0.1459 2.0837,0.5484c0.3617,0.2036 1.172,0.9606 1.4324,1.5091l0.0018,0.0036c0.2408,0.5071 0.5191,1.0933 0.5191,1.4545c-0.3906,-0.225 -0.3592,-0.4716 -0.9115,-0.9632c-0.5209,-0.4638 -1.8232,-0.77 -2.7348,-0.77c-0.6095,0 -1.349,0.3159 -1.7685,0.6008c-0.0743,0.0506 -0.1544,0.1076 -0.2408,0.1692l0,0c-0.4154,0.296 -0.5952,0.6011 -1.637,0.8753c-0.3338,0.0879 -1.0418,0.1371 -1.693,0c-0.6511,-0.1371 -1.4495,-0.4697 -1.5612,-0.4652c0.0537,-0.0022 1.7574,-0.2319 2.3426,-0.5793c0.7814,-0.4637 1.5905,-1.3347 2.0836,-1.6977l0.0145,-0.0098z"/>
   <ellipse id="svg_15" fill="#4D253F" transform="matrix(-1 0 0 1 58.9697 37.3431)" ry="1.73372" rx="1.73373"/>
   <path id="svg_16" fill="#4D253F" d="m61.7937,35.1523c-0.5821,-0.3955 -0.9946,-0.6757 -2.0691,-0.6757c-1.0414,0 -1.3683,0.1459 -2.0836,0.5484c-0.3618,0.2036 -1.1721,0.9606 -1.4325,1.5091l-0.0018,0.0036c-0.2408,0.5071 -0.5191,1.0933 -0.5191,1.4545c0.3906,-0.225 0.3593,-0.4716 0.9115,-0.9632c0.5209,-0.4638 1.8232,-0.77 2.7348,-0.77c0.6095,0 1.349,0.3159 1.7685,0.6008c0.0744,0.0506 0.1544,0.1076 0.2408,0.1692l0,0c0.4154,0.296 0.5952,0.6011 1.637,0.8753c0.3338,0.0879 1.0418,0.1371 1.693,0c0.6511,-0.1371 1.4495,-0.4697 1.5612,-0.4652c-0.0537,-0.0022 -1.7573,-0.2319 -2.3426,-0.5793c-0.7814,-0.4637 -1.5905,-1.3347 -2.0836,-1.6977l-0.0145,-0.0098z"/>
   <path id="svg_17" fill="#623A54" d="m40.7801,29.3909c0.9866,-0.2172 1.5683,-0.2159 2.1481,-0.1458c0.9562,0.1156 1.5863,0.2944 2.1775,0.4388c0.29,0.0709 0.7796,0.2129 0.9549,0.2637l0.0106,0.0031c0.4626,0.1518 0.7304,0.7057 0.5982,1.237c-0.1321,0.5312 -0.614,0.8389 -1.0765,0.6874l-0.0001,-0.0001l-0.0003,-0.0001l-0.0009,-0.0003c-0.9212,-0.2332 -1.502,-0.4059 -2.5667,-0.6282c-0.9387,-0.1961 -1.2582,-0.208 -2.0326,-0.0587c-0.612,0.118 -1.1614,0.2165 -1.9358,0.4537c-0.6184,0.1894 -1.2354,0.456 -1.6454,0.6056c-0.4099,0.1496 -0.8711,0.3335 -1.6454,0.6671c0.3871,-0.6671 0.4839,-0.7783 1.355,-1.7264c0.484,-0.3861 0.8062,-0.6876 1.5487,-1.0531c0.6775,-0.3336 1.2583,-0.5559 2.1107,-0.7437z"/>
   <path id="svg_18" fill="#623A54" d="m61.0247,29.3909c-0.9866,-0.2172 -1.5683,-0.2159 -2.148,-0.1458c-0.9563,0.1156 -1.5864,0.2944 -2.1776,0.4388c-0.29,0.0709 -0.7796,0.2129 -0.9549,0.2637l-0.0106,0.0031c-0.4625,0.1518 -0.7304,0.7057 -0.5982,1.237c0.1321,0.5312 0.614,0.8389 1.0765,0.6874l0.0002,-0.0001l0.0002,-0.0001l0.0009,-0.0003c0.9212,-0.2332 1.502,-0.4059 2.5667,-0.6282c0.9387,-0.1961 1.2582,-0.208 2.0326,-0.0587c0.612,0.118 1.1614,0.2165 1.9358,0.4537c0.6184,0.1894 1.2355,0.456 1.6454,0.6056c0.4099,0.1496 0.8711,0.3335 1.6454,0.6671c-0.3871,-0.6671 -0.4839,-0.7783 -1.355,-1.7264c-0.484,-0.3861 -0.8061,-0.6876 -1.5487,-1.0531c-0.6775,-0.3336 -1.2582,-0.5559 -2.1107,-0.7437z"/>
   <path id="svg_19" fill="#724161" d="m53.1334,19.4062c3.2812,-2.6562 8.0729,-1.1067 10.0586,0l4.1015,-9.66792c-0.7812,-2.86458 -5.7617,-6.73828 -13.2812,-6.73828c-8.1237,0 -12.0117,2.34375 -16.5039,5.66406c-4.8918,3.61564 -6.6429,5.52094 -8.1055,7.71484c-1.3672,2.0508 -5.032,9.7158 -3.7109,13.1836c0.7812,2.0508 1.3672,2.9297 0.8789,6.543c-0.3065,2.2675 -1.7578,4.2968 -2.4414,7.1289c-0.6836,2.832 1.5625,4.8227 1.5625,6.8359c0,1.8555 -1.1719,3.7109 -0.8789,5.6641c0.1728,1.1524 1.9386,1.6918 2.6367,3.4179c0.485,1.1993 -0.7813,2.8321 0,4.6875c0.7812,1.8555 3.0983,2.8897 3.6133,5.0782c0.3906,1.6601 -0.5314,1.6601 -1.0743,3.7109c-0.8789,3.3203 5.2735,13.3899 5.2735,10.3516c0,-4.0039 5.0911,-2.5041 7.4219,-6.25c2.7343,-4.3946 -0.586,-4.4793 -0.586,-7.8125c0,-2.1485 2.0508,-1.0906 2.0508,-4.0039c0,-3.125 -1.2637,-4.3 -2.0508,-5.7618c-0.6836,-1.2695 -0.4883,-4.6875 0.586,-6.25c1.0742,-1.5625 1.0742,-3.8085 0.5859,-6.0546c-0.4883,-2.2461 -0.293,-3.5157 0.8789,-6.0547c1.1719,-2.5391 -2.5391,-5.5664 1.0742,-7.7149c3.6133,-2.1484 0.6836,-5.0781 0.6836,-8.1054c0,-3.0274 3.125,-2.2461 7.2266,-5.5665z"/>
   <path id="svg_20" fill="#724161" d="m63.2071,21.5859c-2.2352,-1.9064 -4.6875,-2.3112 -5.4688,-3.125l4.0039,-9.86324c4.5899,-0.87891 10.1254,4.03024 11.6211,10.44924c2.3438,10.0586 -1.888,13.6719 -4.1992,17.6758c-0.3581,-1.3347 -3.0273,-3.9063 -3.7109,-6.4454c-0.6836,-2.539 1.0742,-5.8593 -2.2461,-8.6914z"/>
  </g>
 </g>
</svg>

<svg width="100" height="92" viewBox="0 0 100 92" fill="none" xmlns="http://www.w3.org/2000/svg">
<mask id="mask0_1_488" style="mask-type:alpha" maskUnits="userSpaceOnUse" x="0" y="0" width="100" height="92">
<path d="M94.7099 51.7367C88.1579 61.9725 88.0001 75 80.5001 81.5C73.0001 88 61.0001 91.1593 50.0001 91C39 90.8407 27.0001 88 20.5001 83.5C14.0001 79 10.7098 67 8.00006 51.7367C8.00001 41.5 -1.20734 34.6156 0.925011 25.8068C5.48094 5.74112 14.0793 1.46484 36.0352 0H61.5402C88.4766 2.44141 94.5192 5.74112 99.0751 25.8068C101.207 34.6156 99.6123 44.0897 94.7099 51.7367Z" fill="#C4C4C4"/>
</mask>
<g mask="url(#mask0_1_488)">
<path d="M35.668 75.0039L33.129 51.4688L46.8985 59.7695V76.2734L35.668 75.0039Z" fill="#623A54"/>
<path d="M71.6055 49.418C71.293 46.9961 69.0014 44.0469 67.8946 42.875L55.1016 51.957V72.6602C57.543 73.832 62.4649 76.4492 62.6212 77.543C62.8165 78.9102 70.629 78.6172 71.6055 77.543C72.5821 76.4688 70.629 73.5391 71.6055 71.7812C72.5821 70.0234 69.7501 66.6055 69.7501 64.9453C69.7501 63.2852 71.6055 62.9922 71.6055 60.6484C71.6055 58.3047 70.043 56.6445 69.7501 54.6914C69.4571 52.7383 71.9962 52.4453 71.6055 49.418Z" fill="#724161"/>
<path d="M43.858 59.7541H57.9779C57.9134 61.4627 57.8231 65.286 57.9779 66.9108C58.1713 68.9417 59.7187 71.8431 63.3937 73.6806C64.9442 74.4558 66.2709 74.9384 67.6716 75.4479C69.5908 76.1461 71.649 76.8948 74.6122 78.5161C78.7128 80.7599 86.1209 89.0577 89.3124 92.9262H12.5235C15.715 89.0577 23.1231 80.7599 27.2236 78.5161C30.1868 76.8948 32.245 76.1461 34.1643 75.4479C35.565 74.9384 36.8917 74.4558 38.4422 73.6806C42.1172 71.8431 43.6646 68.9417 43.858 66.9108C44.0127 65.286 43.9225 61.4627 43.858 59.7541Z" fill="#C15764"/>
<mask id="mask1_1_488" style="mask-type:alpha" maskUnits="userSpaceOnUse" x="12" y="61" width="78" height="34">
<path d="M43.858 61.7072H57.9779C57.9134 63.4158 57.8231 67.2391 57.9779 68.8639C58.1713 70.8948 59.7187 73.7962 63.3937 75.6337C64.9442 76.4089 66.2709 76.8915 67.6716 77.401C69.5908 78.0992 71.649 78.8479 74.6122 80.4693C78.7128 82.713 86.1209 91.0108 89.3124 94.8793H12.5235C15.715 91.0108 23.1231 82.713 27.2236 80.4693C30.1868 78.8479 32.245 78.0992 34.1643 77.401C35.565 76.8915 36.8917 76.4089 38.4422 75.6337C42.1172 73.7962 43.6646 70.8948 43.858 68.8639C44.0127 67.2391 43.9225 63.4158 43.858 61.7072Z" fill="#FFA39C"/>
</mask>
<g mask="url(#mask1_1_488)">
<path d="M35.5571 14.6669C34.5872 18.0389 32.4382 25.511 32.2606 37.3509C31.9883 55.5148 37.0273 59.9376 41.8421 64.1636C42.1637 64.4459 42.4842 64.7272 42.8021 65.0117C46.0789 67.9443 49.3129 68.6054 50.7043 68.7539C52.0956 68.6054 55.3296 67.9443 58.6064 65.0117C58.9243 64.7272 59.2449 64.4459 59.5664 64.1636C64.3813 59.9376 69.4202 55.5148 69.1479 37.3509C68.9703 25.511 66.8213 18.0389 65.8514 14.6669C65.5486 13.6139 65.3607 12.9607 65.3838 12.6992H36.0247C36.0478 12.9607 35.8599 13.6139 35.5571 14.6669Z" fill="#AC4D59"/>
</g>
<path d="M67.1346 48.9118C68.7304 47.7357 71.0432 45.8826 72.056 44.347C72.8136 43.1998 73.1299 41.7386 72.9214 40.3478C72.4885 37.1824 69.0641 35.6808 66.7459 37.6349C66.6156 37.744 66.494 37.8665 66.3693 37.9922C66.3184 38.0435 66.2669 38.0954 66.214 38.1471C66.1682 38.089 66.1238 38.031 66.0799 37.9736C65.9722 37.833 65.8673 37.6961 65.7519 37.5712C63.7021 35.3371 60.114 36.3893 59.2806 39.4736C58.8963 40.8264 59.0234 42.316 59.6285 43.5505C60.4369 45.2029 62.4943 47.3361 63.9269 48.7062C64.3261 49.0881 65.4488 50.088 65.4488 50.088C65.4488 50.088 66.6899 49.2396 67.1346 48.9118Z" fill="#C15764"/>
<path d="M35.5571 14.6669C34.5872 18.0389 32.4382 21.6047 32.2606 33.4446C31.9883 51.6085 37.0273 56.0313 41.8421 60.2574C42.1637 60.5396 42.4842 60.8209 42.8021 61.1054C46.0789 64.038 49.3129 64.6992 50.7043 64.8476C52.0956 64.6992 55.3296 64.038 58.6064 61.1054C58.9243 60.8209 59.2449 60.5396 59.5664 60.2574C64.3813 56.0313 69.4202 51.6085 69.1479 33.4446C68.9703 21.6047 66.8213 18.0389 65.8514 14.6669C65.5486 13.6139 65.3607 12.9607 65.3838 12.6992H36.0247C36.0478 12.9607 35.8599 13.6139 35.5571 14.6669Z" fill="#C9616E"/>
<path fill-rule="evenodd" clip-rule="evenodd" d="M48.1258 50.7058C48.4018 50.5198 48.7072 50.3945 49.0787 50.3945C49.5505 50.3945 49.8658 50.5721 50.1253 50.7181L50.1347 50.7234C50.3684 50.855 50.5471 50.9517 50.7841 50.9631C51.021 50.9517 51.1997 50.855 51.4334 50.7234L51.4429 50.7181C51.7023 50.5721 52.0176 50.3945 52.4894 50.3945C52.8609 50.3945 53.1663 50.5198 53.4424 50.7058C53.7102 50.8863 53.9641 51.1338 54.232 51.3949L54.2405 51.4032C54.4592 51.6164 54.6921 51.8433 54.9629 52.0698C55.3794 52.418 56.0274 52.8112 56.5628 53.1355L56.5668 53.138C56.5668 53.138 57.2501 53.4736 57.2501 53.6023C57.2501 53.7311 56.809 53.8384 56.809 53.8384C56.6841 53.904 56.5429 53.9937 56.3952 54.0991C56.1 54.3097 55.7913 54.5744 55.5546 54.8119C55.4434 54.9235 55.3345 55.0665 55.2144 55.233C55.1864 55.2718 55.1577 55.3119 55.1285 55.353C55.0348 55.4843 54.9343 55.6252 54.8256 55.7635C54.5396 56.1273 54.1758 56.5022 53.6429 56.725C52.635 57.1464 51.9216 57.2305 50.8306 57.2305C50.7886 57.2305 50.7479 57.2279 50.7086 57.2227C50.6693 57.2279 50.6286 57.2305 50.5866 57.2305C49.4956 57.2305 48.7823 57.1464 47.7743 56.725C47.2414 56.5022 46.8776 56.1273 46.5916 55.7635C46.4829 55.6252 46.3825 55.4843 46.2888 55.353C46.2595 55.312 46.2308 55.2718 46.2028 55.233C46.0827 55.0665 45.9738 54.9235 45.8626 54.8119C45.6259 54.5744 45.3173 54.3097 45.022 54.0991C44.8744 53.9937 44.7331 53.904 44.6082 53.8384C44.6082 53.8384 44.1641 53.6497 44.1641 53.5502C44.1641 53.4506 45.0053 53.1355 45.0053 53.1355C45.5407 52.8112 46.1887 52.418 46.6052 52.0698C46.876 51.8433 47.109 51.6164 47.3277 51.4032L47.3362 51.3949C47.604 51.1338 47.8579 50.8863 48.1258 50.7058ZM50.7841 54.2031C49.6137 54.2031 48.6196 53.9255 48.2107 53.8147C48.2224 53.8127 48.2339 53.8107 48.245 53.8086C48.6173 53.7394 49.003 53.6149 49.3681 53.4969L49.3759 53.4944C49.9018 53.3245 50.3765 53.1733 50.7841 53.1621C51.1916 53.1733 51.6663 53.3245 52.1923 53.4944L52.2 53.4969C52.5472 53.6091 52.913 53.7272 53.2683 53.7981C52.8408 53.9123 51.9544 54.2031 50.7841 54.2031Z" fill="#AB3645"/>
<path d="M52.6072 43.5109C52.257 43.194 51.879 42.8115 50.8806 42.7773C49.8821 42.7432 49.1539 43.5109 49.1539 43.5109C48.5287 44.0767 48.3809 45.3668 48.5879 45.3668C48.7081 45.3668 48.9257 45.1568 49.139 44.9511C49.2926 44.8029 49.444 44.6568 49.555 44.5931C49.881 44.4061 50.3103 44.0531 50.8806 44.0469C51.4508 44.0531 51.8801 44.4061 52.2061 44.5931C52.3171 44.6568 52.4685 44.8029 52.6222 44.9511C52.8354 45.1568 53.053 45.3668 53.1732 45.3668C53.3802 45.3668 53.2324 44.0767 52.6072 43.5109Z" fill="#AC4D59"/>
<circle cx="42.826" cy="37.343" r="1.73373" fill="#4D253F"/>
<path d="M40.0111 35.1523C40.5932 34.7568 41.0057 34.4766 42.0802 34.4766C43.1216 34.4766 43.4485 34.6225 44.1639 35.025C44.5256 35.2286 45.3359 35.9856 45.5963 36.5341L45.5981 36.5377C45.8389 37.0448 46.1172 37.631 46.1172 37.9922C45.7266 37.7672 45.758 37.5206 45.2057 37.029C44.6848 36.5652 43.3825 36.259 42.4709 36.259C41.8614 36.259 41.1219 36.5749 40.7024 36.8598C40.6281 36.9104 40.548 36.9674 40.4616 37.029L40.4616 37.029C40.0462 37.325 39.8664 37.6301 38.8246 37.9043C38.4908 37.9922 37.7828 38.0414 37.1316 37.9043C36.4805 37.7672 35.6821 37.4346 35.5704 37.4391C35.6241 37.4369 37.3278 37.2072 37.913 36.8598C38.6944 36.3961 39.5035 35.5251 39.9966 35.1621L40.0111 35.1523Z" fill="#4D253F"/>
<ellipse rx="1.73373" ry="1.73372" transform="matrix(-1 0 0 1 58.9697 37.3431)" fill="#4D253F"/>
<path d="M61.7937 35.1523C61.2116 34.7568 60.7991 34.4766 59.7246 34.4766C58.6832 34.4766 58.3563 34.6225 57.641 35.025C57.2792 35.2286 56.4689 35.9856 56.2085 36.5341L56.2067 36.5377C55.9659 37.0448 55.6876 37.631 55.6876 37.9922C56.0782 37.7672 56.0469 37.5206 56.5991 37.029C57.12 36.5652 58.4223 36.259 59.3339 36.259C59.9434 36.259 60.6829 36.5749 61.1024 36.8598C61.1768 36.9104 61.2568 36.9674 61.3432 37.029L61.3432 37.029C61.7586 37.325 61.9384 37.6301 62.9802 37.9043C63.314 37.9922 64.022 38.0414 64.6732 37.9043C65.3243 37.7672 66.1227 37.4346 66.2344 37.4391C66.1807 37.4369 64.4771 37.2072 63.8918 36.8598C63.1104 36.3961 62.3013 35.5251 61.8082 35.1621L61.7937 35.1523Z" fill="#4D253F"/>
<path d="M40.7801 29.3909C41.7667 29.1737 42.3484 29.175 42.9282 29.2451C43.8844 29.3607 44.5145 29.5395 45.1057 29.6839C45.3957 29.7548 45.8853 29.8968 46.0606 29.9476L46.0712 29.9507C46.5338 30.1025 46.8016 30.6564 46.6694 31.1877C46.5373 31.7189 46.0554 32.0266 45.5929 31.8751L45.5928 31.875L45.5925 31.8749L45.5916 31.8746C44.6704 31.6414 44.0896 31.4687 43.0249 31.2464C42.0862 31.0503 41.7667 31.0384 40.9923 31.1877C40.3803 31.3057 39.8309 31.4042 39.0565 31.6414C38.4381 31.8308 37.8211 32.0974 37.4111 32.247C37.0012 32.3966 36.54 32.5805 35.7657 32.9141C36.1528 32.247 36.2496 32.1358 37.1207 31.1877C37.6047 30.8016 37.9269 30.5001 38.6694 30.1346C39.3469 29.801 39.9277 29.5787 40.7801 29.3909Z" fill="#623A54"/>
<path d="M61.0247 29.3909C60.0381 29.1737 59.4564 29.175 58.8767 29.2451C57.9204 29.3607 57.2903 29.5395 56.6991 29.6839C56.4091 29.7548 55.9195 29.8968 55.7442 29.9476L55.7336 29.9507C55.2711 30.1025 55.0032 30.6564 55.1354 31.1877C55.2675 31.7189 55.7494 32.0266 56.2119 31.8751L56.2121 31.875L56.2123 31.8749L56.2132 31.8746C57.1344 31.6414 57.7152 31.4687 58.7799 31.2464C59.7186 31.0503 60.0381 31.0384 60.8125 31.1877C61.4245 31.3057 61.9739 31.4042 62.7483 31.6414C63.3667 31.8308 63.9838 32.0974 64.3937 32.247C64.8036 32.3966 65.2648 32.5805 66.0391 32.9141C65.652 32.247 65.5552 32.1358 64.6841 31.1877C64.2001 30.8016 63.878 30.5001 63.1354 30.1346C62.4579 29.801 61.8772 29.5787 61.0247 29.3909Z" fill="#623A54"/>
<path d="M53.1334 19.4062C56.4146 16.75 61.2063 18.2995 63.192 19.4062L67.2935 9.73828C66.5123 6.8737 61.5318 3 54.0123 3C45.8886 3 42.0006 5.34375 37.5084 8.66406C32.6166 12.2797 30.8655 14.185 29.4029 16.3789C28.0357 18.4297 24.3709 26.0947 25.692 29.5625C26.4732 31.6133 27.0592 32.4922 26.5709 36.1055C26.2644 38.373 24.8131 40.4023 24.1295 43.2344C23.4459 46.0664 25.692 48.0571 25.692 50.0703C25.692 51.9258 24.5201 53.7812 24.8131 55.7344C24.9859 56.8868 26.7517 57.4262 27.4498 59.1523C27.9348 60.3516 26.6685 61.9844 27.4498 63.8398C28.231 65.6953 30.5481 66.7295 31.0631 68.918C31.4537 70.5781 30.5317 70.5781 29.9888 72.6289C29.1099 75.9492 35.2623 86.0188 35.2623 82.9805C35.2623 78.9766 40.3534 80.4764 42.6842 76.7305C45.4185 72.3359 42.0982 72.2512 42.0982 68.918C42.0982 66.7695 44.149 67.8274 44.149 64.9141C44.149 61.7891 42.8853 60.6141 42.0982 59.1523C41.4146 57.8828 41.6099 54.4648 42.6842 52.9023C43.7584 51.3398 43.7584 49.0938 43.2701 46.8477C42.7818 44.6016 42.9771 43.332 44.149 40.793C45.3209 38.2539 41.6099 35.2266 45.2232 33.0781C48.8365 30.9297 45.9068 28 45.9068 24.9727C45.9068 21.9453 49.0318 22.7266 53.1334 19.4062Z" fill="#724161"/>
<path d="M63.2071 21.5859C60.9719 19.6795 58.5196 19.2747 57.7383 18.4609L61.7422 8.59766C66.3321 7.71875 71.8676 12.6279 73.3633 19.0469C75.7071 29.1055 71.4753 32.7188 69.1641 36.7227C68.806 35.388 66.1368 32.8164 65.4532 30.2773C64.7696 27.7383 66.5274 24.418 63.2071 21.5859Z" fill="#724161"/>
</g>
</svg>
